X:863
T:Blackberry Blossom
S:Ashley Broder, GFW 18/9/06
Z:Nigel Gatherer
L:1/8
M:4/4
K:G
gabg fgaf | efge dBAG | EFGE DFGA | BdBG Adef |
gabg fgaf | efge dBAG | EFGE DFGA | BdAF G4  :|
E2 eB d2 e2 | E2 eB dBAG | E2 eB d2 e2 | fefg afed |
E2 eB d2 e2 | E2 eB dBAB | cBcd efge | dBAF G4 :|
<end>
<start>
